findly-builder/apps/searchassist/src/assets/icons/structured-data/carrot-down.svg

<svg width="12" height="7" viewBox="0 0 12 7" fill="none" xmlns="http://www.w3.org/2000/svg">
<path fill-rule="evenodd" clip-rule="evenodd" d="M6.55518 6.22165C6.35845 6.41838 6.04668 6.42995 5.83641 6.25637L5.79823 6.22165L1.11125 1.53467C0.902225 1.32564 0.902225 0.986746 1.11125 0.77772C1.30798 0.580989 1.61975 0.569417 1.83002 0.743003L1.8682 0.77772L6.1767 5.08614L10.4852 0.77772C10.6819 0.58099 10.9937 0.569417 11.204 0.743003L11.2422 0.77772C11.4389 0.974451 11.4505 1.28622 11.2769 1.49649L11.2422 1.53467L6.55518 6.22165Z" fill="#202124"/>
</svg>

<svg width="12" height="7" fill="none" xmlns="http://www.w3.org/2000/svg"><path fill-rule="evenodd" clip-rule="evenodd" d="M6.555 6.222a.535.535 0 0 1-.719.034l-.038-.034-4.687-4.687A.535.535 0 0 1 1.83.743l.038.035 4.309 4.308L10.485.778a.535.535 0 0 1 .719-.035l.038.035a.535.535 0 0 1 .035.718l-.035.039-4.687 4.687Z" fill="#202124"/></svg>
